src/img/404.svg

<svg width="1050" height="646" viewBox="0 0 1050 646" fill="none" xmlns="http://www.w3.org/2000/svg">
<path d="M0.6 523.7V433.7L180.6 7.99996H288.6V433.7H335.4V523.7H288.6V638H191.4V523.7H0.6ZM91.5 433.7H191.4V197L91.5 433.7ZM471.736 152.9V493.1C471.736 538.1 491.536 555.2 523.036 555.2C554.536 555.2 574.336 538.1 574.336 493.1V152.9C574.336 107.9 554.536 90.8 523.036 90.8C491.536 90.8 471.736 107.9 471.736 152.9ZM372.736 486.8V159.2C372.736 58.4 425.836 0.799996 523.036 0.799996C620.236 0.799996 673.336 58.4 673.336 159.2V486.8C673.336 587.6 620.236 645.2 523.036 645.2C425.836 645.2 372.736 587.6 372.736 486.8ZM714.272 523.7V433.7L894.272 7.99996H1002.27V433.7H1049.07V523.7H1002.27V638H905.072V523.7H714.272ZM805.172 433.7H905.072V197L805.172 433.7Z" fill="white" fill-opacity="0.03"/>
</svg>

<svg width="1050" height="646" fill="none" xmlns="http://www.w3.org/2000/svg"><path d="M.6 523.7v-90L180.6 8h108v425.7h46.8v90h-46.8V638h-97.2V523.7H.6Zm90.9-90h99.9V197L91.5 433.7Zm380.236-280.8v340.2c0 45 19.8 62.1 51.3 62.1 31.5 0 51.3-17.1 51.3-62.1V152.9c0-45-19.8-62.1-51.3-62.1-31.5 0-51.3 17.1-51.3 62.1Zm-99 333.9V159.2c0-100.8 53.1-158.4 150.3-158.4 97.2 0 150.3 57.6 150.3 158.4v327.6c0 100.8-53.1 158.4-150.3 158.4-97.2 0-150.3-57.6-150.3-158.4Zm341.536 36.9v-90l180-425.7h107.998v425.7h46.8v90h-46.8V638h-97.198V523.7h-190.8Zm90.9-90h99.9V197l-99.9 236.7Z" fill="#fff" fill-opacity=".03"/></svg>
